X:1
T:Kingley Vale, 87.87.47
T:Kingley Vale, 87.87.47
T:Hugh Percy Allen (1869-1946)
T:Public Domain Courtesy of the Cyber Hymnal™
C:Hugh Percy Allen (1869-1946)
Z:Public Domain
Z:Courtesy of the Cyber Hymnal™
%%score ( 1 2 ) ( 3 4 )
L:1/8
Q:1/4=113
M:none
K:C
V:1 treble 
V:2 treble 
V:3 bass 
V:4 bass 
V:1
 G3 E D2 C2 | A2 G2 (AB) [Ec]2 | B2 A2 G2 [CEA]2 | [CE]2 (DC) D4 | [CE]2 (FG) A2 [^CA]2 | %5
 [CEAc]2 [B,^D^FB]2 A2 G2 | [D-A]2 (Bc) d2 B2 | ([EA][DG]) A2 [DG]4 | E2 E2- [CE-c]4 [B,EB]4 | %9
 [CA]2 [B,G]2 (EF) G2 x2 | [CD]2 [B,D]2 [G,C]4 |] %11
V:2
 C4 D2 C2 | C4 F2 x2 | E6- x2 | x2 A,2 (C2 B,2) | x2 D4 x2 | x4 (E^F) G2 | x2 [D-^F]2 [DG]4 | %7
 x2 (E^F) x4 | E2 E2 x8 | x4 C6- | x8 |] %11
V:3
 [E,-G,]4 [E,A,]4 | [F,,F,]2 [E,,E,G,]2 [D,,D,F,]2 [E,,C,G,]2 | %2
 [E,,E,G,]2 [A,,C]2 [E,B,]2 [A,,A,]2 | [C,G,]2 [D,F,]2 [G,,G,]4 | %4
 [C,G,]2 [_B,,D,]2 [A,,E,]2 (F,G,) | [^F,,A,]2 [B,,^F,]2 B,4 | %6
 [D,^F,]2 (G,A,) [C,D,-B,]2 [A,,D,G,]2 | (CB,) C2 [G,,G,B,]4 | E,2 E,2- [E,A,]4 ^G,4 | %9
 [F,,F,A,]2 [G,,D,G,]2 [A,,A,]2 G,2- x2 | [G,,G,]4 [C,,C,E,]4 |] %11
V:4
 C,2 B,,2 A,,3 G,, | x8 | x8 | x8 | x6 G,,2 | x4 (^C,^D,) E,2 | x2 C,2 x4 | [D,,F,]4 x4 | %8
 E,2 E,2 (A,,2 C,2) (E,2 E,,2) | x6 (E,,F,,) x2 | x8 |] %11

